images/dd-wrt/dd-wrt-logo-white.svg

<svg viewBox="0 0 125 24" xmlns="http://www.w3.org/2000/svg"><path d="m7.3 0c1.123 1.527.524 3.335.642 5-.23 0-.7 0-.93 0a21.325 21.325 0 0 1 .288-5zm4.83 0c1.452 1.219.6 3.307.8 4.926l-.919.074a47.091 47.091 0 0 1 .119-5zm5.055 0c.2.019.6.061.808.085.007 1.638.017 3.277-.036 4.915-.218-.113-.658-.345-.879-.463a22.638 22.638 0 0 1 .107-4.537zm34.823 0h2.984q0 2.5.008 5c-1 0-2 0-3 0q.006-2.5.008-5zm5.007.015 3.975-.015c.01 1.667.01 3.333.01 5q-2-.008-4-.03.015-2.478.015-4.955zm9.985-.015c1.332.005 2.66.005 3.992 0q0 2.5.008 5c-1.336 0-2.668 0-4 0 0-1.665 0-3.335 0-5zm-45 4.98c.006-1.657.006-3.308.012-4.965.5 0 1.48-.015 1.971-.015.018 1.667.024 3.333.006 5-.663-.01-1.326-.015-1.989-.02zm5.01-4.975h1.99v4.995c-.5 0-1.5-.01-2-.01.005-1.662.005-3.323.01-4.985zm5 0c.492 0 1.484.005 1.98.005q.014 2.5 0 5h-1.99c0-1.675 0-3.345.013-5.01zm4.992.015c.998-.015 1.998-.015 2.993-.02 0 1.665 0 3.335.005 5-1 0-2-.01-3-.02q.008-2.48.005-4.965zm5-.01h2.985c0 1.668 0 3.332.01 5q-1.5-.008-3-.02.018-2.497.008-4.985zm4.998-.01 3 .015v4.95c-1 .015-2 .025-3 .035zm15.005 0h3.995v5c-1.332 0-2.668 0-4 0q.008-2.5.005-5zm55.1 17.539a6.654 6.654 0 0 1 5.656-.956c1.081.263 2.244 1.118 2.2 2.323.083 1.687.015 3.378.029 5.065-.3 0-.887.019-1.182.029-.02-1.711.1-3.427-.063-5.128-.165-1.128-1.469-1.362-2.414-1.338-1.25-.019-2.9-.162-3.591 1.123a41.4 41.4 0 0 0 -.112 5.319l-1.071.01a34.23 34.23 0 0 0 -.107-5.085 2.185 2.185 0 0 0 -2.375-1.362c-1.25-.005-2.971-.215-3.63 1.123a43.5 43.5 0 0 0 -.095 5.338c-.33-.014-.984-.043-1.314-.062.194-2.638-.45-5.395.5-7.933.237.292.717.87.954 1.161a6.13 6.13 0 0 1 6.61.373zm-27.855-.907c1.8-.964 3.95-.549 5.9-.509 1.575.03 2.5 1.463 2.857 2.877-1.19.309-1.443-.87-1.965-1.554a11.545 11.545 0 0 0 -6.52.035c-.3 1.728-1.063 4.231.81 5.315a23.025 23.025 0 0 0 5.3.01c.756-.67 1.2-1.739 2.3-1.938-.166 1.218-.605 2.7-1.97 2.966a32.009 32.009 0 0 1 -5.666.08 2.485 2.485 0 0 1 -2.248-2.722c-.015-1.568-.371-3.616 1.199-4.56zm10.338-.214a14.651 14.651 0 0 1 5.669-.28 2.8 2.8 0 0 1 2.534 2.069c.4 1.949.439 4.818-1.823 5.587a25.217 25.217 0 0 1 -5.595.1 2.558 2.558 0 0 1 -2.32-2.668c-.068-1.669-.329-4.003 1.532-4.808zm-.345 2.229c-.079 1.409-.474 3.478 1.165 4.143a49.768 49.768 0 0 0 5.111.14c.632-.585 1.323-1.254 1.156-2.219-.1-1.039.355-2.529-.766-3.133-1.2-.795-2.711-.55-4.059-.56-1.05.015-2.517.335-2.61 1.629zm-21.234-18.637c1.329 0 2.662 0 3.991-.01v5c-1.333 0-2.667 0-4-.015.009-1.66.009-3.315.009-4.975zm26.191-.01 1.668.015c.138 1.645.128 3.29.133 4.94l-1.882.045c-.01-1.3-.01-2.6-.119-3.888.052-.277.152-.835.2-1.112zm9.8.03c.228-.01.681-.025.905-.03.008 1.643 0 3.286.095 4.93-.336.025-.668.045-1 .07zm5.13 4.97a25.78 25.78 0 0 1 -.017-5c.222.182.66.542.876.724-.023 1.132-.023 2.264.011 3.4-.216.219-.654.658-.87.876zm-46.117-4.995q1.993.008 3.987-.005v5q-2-.03-4 0c0-1.673 0-3.337.013-4.995zm9.992 0c1.332-.005 2.658 0 3.995-.005-.005 1.663 0 3.332 0 5-1.332-.01-2.668 0-4 0q.008-2.5.005-5zm5 0c.995-.005 1.995 0 2.995 0q-.007 2.495 0 4.98l-3 .015q0-2.5 0-5zm5.005-.005c.99 0 1.99 0 2.99.005q-.013 2.495 0 4.985c-1 .01-2 .01-3 .01.01-1.668.01-3.337.01-5zm6 0c.66.005 1.321.015 1.985.02q-.006 2.475.008 4.94c-.668.015-1.337.03-2 .04q-.003-2.5.004-5zm9.99.005h1.994q0 2.505.006 5c-.5 0-1.5-.01-2-.015 0-1.665.006-3.325 0-4.985zm-94.954 7.28c.484.009 1.444.032 1.924.041 0 5.537-.082 11.073.01 16.605-.48.019-1.44.046-1.92.06 0-.276-.01-.832-.01-1.107-2.172 1.479-4.911 1.01-7.413 1.079-1.935-.018-4.271.115-5.644-1.442-1.454-1.765-.848-4.149-.96-6.221-.126-2.541 2.531-4.411 5.057-4.3 3.006.156 6.332-.648 8.98 1.107-.029-1.94-.024-3.883-.024-5.822zm-9.557 6.315a2.855 2.855 0 0 0 -2.536 3.162c.16 1.626-.572 3.735.994 4.911 1.261 1.066 3.065.813 4.621.864 1.857-.074 4.048.335 5.522-1.015 1.387-1.25.9-3.184.965-4.793.184-1.888-1.808-3.276-3.651-3.3a34.836 34.836 0 0 0 -5.915.171zm24.845-6.6c.4.023 1.208.075 1.615.1.1 5.614-.014 11.232.051 16.846l-1.574.054c-.074-.261-.222-.783-.291-1.044a5.534 5.534 0 0 1 -2.731.974 68.568 68.568 0 0 1 -6.921-.084 3.686 3.686 0 0 1 -3.4-3.446 28.217 28.217 0 0 1 .106-5.59c.56-2.257 3.115-3.133 5.194-3 2.675.121 5.587-.513 7.957 1.1q-.025-2.954-.006-5.91zm-8.559 6.323a3.369 3.369 0 0 0 -2.875 1.949 25 25 0 0 0 -.083 4.667c-.009 1.375 1.379 2.28 2.6 2.48a50.151 50.151 0 0 0 5.619.056 3.346 3.346 0 0 0 3.277-3.114c.047-1.9.426-4.462-1.555-5.563-2.183-.974-4.678-.447-6.983-.475zm50.817-6.323h1.882q-.008 2.213-.019 4.425c3.136-.014 6.268 0 9.405 0 0 .371.009 1.119.014 1.49q-4.706.014-9.405 0c.033 2.458-.09 4.922.062 7.375a2.369 2.369 0 0 0 2.5 2.179c1.716-.043 3.7.371 5.166-.781.87-.689.779-1.914.931-2.907h1.868c0 1.856-.694 3.972-2.561 4.671-1.849.8-3.94.482-5.893.492a3.916 3.916 0 0 1 -3.892-3.6c-.152-2.473.019-4.951-.062-7.423h-1.588c0-.376 0-1.119.01-1.495.4 0 1.2-.005 1.6-.005-.01-1.476-.018-2.946-.018-4.421zm-35.592 5.154c.675.014 1.351.027 2.026.045q1.884 4.8 3.911 9.55c.136.037.412.1.548.132 1.36-3.224 2.617-6.485 3.967-9.709.722 0 1.444 0 2.167-.009 1.388 3.387 2.7 6.806 4.089 10.193 1.561-3.174 2.883-6.462 4.117-9.767.178-.041.53-.127.708-.168-.132 1.168-.268 2.341-.338 3.519a13.537 13.537 0 0 0 1.651-3.94c.07.312.206.933.272 1.245 2.114-1.4 4.717-1.082 7.141-1.059a5.016 5.016 0 0 1 3.935 1.752 6.106 6.106 0 0 1 .806 3.079l-1.618.014c-.15-1.621-1.214-3.346-3.123-3.206-2.316.14-5.725-.847-6.907 1.761-.577 2.745-.094 5.62-.248 8.414-.619-.018-1.238-.041-1.853-.063-.023-2.423 0-4.85.15-7.268-1.556 2.209-2.189 4.881-3.348 7.295-.792 0-1.585 0-2.377 0q-2.053-5.175-4.164-10.329c-1.3 3.487-2.79 6.906-4.15 10.37-.8-.023-1.6-.045-2.4-.082-1.562-3.958-3.279-7.861-4.962-11.769zm-3 4.852c1.271.006 2.542.018 3.813-.006.045.647.109 1.3.187 1.947-1.33.035-2.665.035-3.995.053 0-.665-.005-1.329-.005-1.994zm52.01 4.994q.99.008 1.98.021c0 .653.005 1.3.01 1.963l-2 .016c0-.668.005-1.332.01-2z" fill="#fff"/></svg>

<svg xmlns="http://www.w3.org/2000/svg" viewBox="0 0 125 24"><defs><style>.cls-1{fill:#fff;}</style></defs><title>dd-wrt-logo</title><g id="Layer_2" data-name="Layer 2"><g id="Layer_1-2" data-name="Layer 1"><g id="img"><g id="Logo"><path id="Combined-Shape" class="cls-1" d="M7.3,0c1.123,1.527.524,3.335.642,5-.23,0-.7,0-.93,0A21.325,21.325,0,0,1,7.3,0ZM12.13,0c1.452,1.219.6,3.307.8,4.926L12.011,5A47.091,47.091,0,0,1,12.13,0Zm5.055,0c.2.019.6.061.808.085C18,1.723,18.01,3.362,17.957,5c-.218-.113-.658-.345-.879-.463A22.638,22.638,0,0,1,17.185,0ZM52.008,0h2.984q0,2.5.008,5c-1,0-2,0-3,0Q52.006,2.5,52.008,0Zm5.007.015L60.99,0C61,1.667,61,3.333,61,5q-2-.008-4-.03Q57.015,2.492,57.015.015ZM67,0c1.332.005,2.66.005,3.992,0q0,2.5.008,5c-1.336,0-2.668,0-4,0C67,3.335,67,1.665,67,0ZM22,4.98c.006-1.657.006-3.308.012-4.965.5,0,1.48-.015,1.971-.015.018,1.667.024,3.333.006,5C23.326,4.99,22.663,4.985,22,4.98ZM27.01.005c.5,0,1.493,0,1.99,0V5c-.5,0-1.5-.01-2-.01C27.005,3.328,27.005,1.667,27.01.005Zm5,0c.492,0,1.484.005,1.98.005q.014,2.5,0,5H32C32,3.335,32,1.665,32.013,0Zm4.992.015C38,.005,39,.005,39.995,0c0,1.665,0,3.335.005,5-1,0-2-.01-3-.02Q37.008,2.5,37.005.015Zm5-.01c1,0,1.988,0,2.985,0,0,1.668,0,3.332.01,5q-1.5-.008-3-.02Q42.015,2.493,42.005.005ZM47,0l3,.015c0,1.648,0,3.3,0,4.95C49,4.98,48,4.99,47,5ZM62.005,0H66c0,1.665,0,3.33,0,5-1.332,0-2.668,0-4,0Q62.008,2.5,62.005,0Zm55.1,17.539a6.654,6.654,0,0,1,5.656-.956c1.081.263,2.244,1.118,2.2,2.323.083,1.687.015,3.378.029,5.065-.3,0-.887.019-1.182.029-.02-1.711.1-3.427-.063-5.128-.165-1.128-1.469-1.362-2.414-1.338-1.25-.019-2.9-.162-3.591,1.123a41.4,41.4,0,0,0-.112,5.319l-1.071.01a34.23,34.23,0,0,0-.107-5.085,2.185,2.185,0,0,0-2.375-1.362c-1.25-.005-2.971-.215-3.63,1.123A43.5,43.5,0,0,0,110.35,24c-.33-.014-.984-.043-1.314-.062.194-2.638-.45-5.395.5-7.933.237.292.717.87.954,1.161A6.13,6.13,0,0,1,117.1,17.539Zm-27.855-.907c1.8-.964,3.95-.549,5.9-.509,1.575.03,2.5,1.463,2.857,2.877-1.19.309-1.443-.87-1.965-1.554a11.545,11.545,0,0,0-6.52.035c-.3,1.728-1.063,4.231.81,5.315a23.025,23.025,0,0,0,5.3.01c.756-.67,1.2-1.739,2.3-1.938-.166,1.218-.605,2.7-1.97,2.966a32.009,32.009,0,0,1-5.666.08,2.485,2.485,0,0,1-2.248-2.722C88.033,19.624,87.677,17.576,89.247,16.632Zm10.338-.214a14.651,14.651,0,0,1,5.669-.28,2.8,2.8,0,0,1,2.534,2.069c.4,1.949.439,4.818-1.823,5.587a25.217,25.217,0,0,1-5.595.1,2.558,2.558,0,0,1-2.32-2.668C97.985,19.557,97.724,17.223,99.585,16.418Zm-.345,2.229c-.079,1.409-.474,3.478,1.165,4.143a49.768,49.768,0,0,0,5.111.14c.632-.585,1.323-1.254,1.156-2.219-.1-1.039.355-2.529-.766-3.133-1.2-.795-2.711-.55-4.059-.56C100.8,17.033,99.333,17.353,99.24,18.647ZM78.009.01c1.329,0,2.662,0,3.991-.01,0,1.665,0,3.335,0,5-1.333,0-2.667,0-4-.015C78.009,3.325,78.009,1.67,78.009.01ZM104.2,0l1.668.015c.138,1.645.128,3.29.133,4.94L104.119,5c-.01-1.3-.01-2.6-.119-3.888C104.052.835,104.152.277,104.2,0Zm9.8.03c.228-.01.681-.025.905-.03.008,1.643,0,3.286.095,4.93-.336.025-.668.045-1,.07ZM119.13,5a25.78,25.78,0,0,1-.017-5c.222.182.66.542.876.724-.023,1.132-.023,2.264.011,3.4C119.784,4.343,119.346,4.782,119.13,5ZM73.013.005Q75.006.013,77,0V5q-2-.03-4,0C73,3.327,73,1.663,73.013.005Zm9.992,0C84.337,0,85.663.005,87,0c-.005,1.663,0,3.332,0,5-1.332-.01-2.668,0-4,0Q83.008,2.5,83.005,0Zm5,0C89,0,90,.005,91,.005q-.007,2.495,0,4.98L88,5Q88,2.5,88,0ZM93.01,0C94,0,95,0,96,.005Q95.987,2.5,96,4.99C95,5,94,5,93,5,93.01,3.332,93.01,1.663,93.01,0Zm6,0c.66.005,1.321.015,1.985.02q-.006,2.475.008,4.94c-.668.015-1.337.03-2,.04Q99,2.5,99.007,0ZM109,.005c.5,0,1.5,0,1.994,0q0,2.505.006,5c-.5,0-1.5-.01-2-.015C109,3.325,109.006,1.665,109,.005ZM14.046,7.285c.484.009,1.444.032,1.924.041,0,5.537-.082,11.073.01,16.605-.48.019-1.44.046-1.92.06,0-.276-.01-.832-.01-1.107-2.172,1.479-4.911,1.01-7.413,1.079-1.935-.018-4.271.115-5.644-1.442C-.461,20.756.145,18.372.033,16.3-.093,13.759,2.564,11.889,5.09,12c3.006.156,6.332-.648,8.98,1.107C14.041,11.167,14.046,9.224,14.046,7.285ZM4.489,13.6a2.855,2.855,0,0,0-2.536,3.162c.16,1.626-.572,3.735.994,4.911,1.261,1.066,3.065.813,4.621.864,1.857-.074,4.048.335,5.522-1.015,1.387-1.25.9-3.184.965-4.793.184-1.888-1.808-3.276-3.651-3.3A34.836,34.836,0,0,0,4.489,13.6ZM29.334,7c.4.023,1.208.075,1.615.1.1,5.614-.014,11.232.051,16.846L29.426,24c-.074-.261-.222-.783-.291-1.044a5.534,5.534,0,0,1-2.731.974,68.568,68.568,0,0,1-6.921-.084,3.686,3.686,0,0,1-3.4-3.446,28.217,28.217,0,0,1,.106-5.59c.56-2.257,3.115-3.133,5.194-3,2.675.121,5.587-.513,7.957,1.1Q29.315,9.956,29.334,7Zm-8.559,6.323A3.369,3.369,0,0,0,17.9,15.272a25,25,0,0,0-.083,4.667c-.009,1.375,1.379,2.28,2.6,2.48a50.151,50.151,0,0,0,5.619.056,3.346,3.346,0,0,0,3.277-3.114c.047-1.9.426-4.462-1.555-5.563C25.575,12.824,23.08,13.351,20.775,13.323ZM71.592,7c.471,0,1.411,0,1.882,0q-.008,2.213-.019,4.425c3.136-.014,6.268,0,9.405,0,0,.371.009,1.119.014,1.49q-4.706.014-9.405,0c.033,2.458-.09,4.922.062,7.375a2.369,2.369,0,0,0,2.5,2.179c1.716-.043,3.7.371,5.166-.781.87-.689.779-1.914.931-2.907.466,0,1.4,0,1.868,0,0,1.856-.694,3.972-2.561,4.671-1.849.8-3.94.482-5.893.492a3.916,3.916,0,0,1-3.892-3.6c-.152-2.473.019-4.951-.062-7.423H70c0-.376,0-1.119.01-1.495.4,0,1.2-.005,1.6-.005C71.6,9.945,71.592,8.475,71.592,7ZM36,12.154c.675.014,1.351.027,2.026.045q1.884,4.8,3.911,9.55c.136.037.412.1.548.132,1.36-3.224,2.617-6.485,3.967-9.709.722,0,1.444,0,2.167-.009,1.388,3.387,2.7,6.806,4.089,10.193,1.561-3.174,2.883-6.462,4.117-9.767.178-.041.53-.127.708-.168-.132,1.168-.268,2.341-.338,3.519A13.537,13.537,0,0,0,58.846,12c.07.312.206.933.272,1.245,2.114-1.4,4.717-1.082,7.141-1.059a5.016,5.016,0,0,1,3.935,1.752A6.106,6.106,0,0,1,71,17.017l-1.618.014c-.15-1.621-1.214-3.346-3.123-3.206-2.316.14-5.725-.847-6.907,1.761-.577,2.745-.094,5.62-.248,8.414-.619-.018-1.238-.041-1.853-.063-.023-2.423,0-4.85.15-7.268-1.556,2.209-2.189,4.881-3.348,7.295-.792,0-1.585,0-2.377,0q-2.053-5.175-4.164-10.329c-1.3,3.487-2.79,6.906-4.15,10.37-.8-.023-1.6-.045-2.4-.082C39.4,19.965,37.683,16.062,36,12.154Zm-3,4.852c1.271.006,2.542.018,3.813-.006.045.647.109,1.3.187,1.947-1.33.035-2.665.035-3.995.053C33.005,18.335,33,17.671,33,17.006ZM85.01,22q.99.008,1.98.021c0,.653.005,1.3.01,1.963L85,24C85,23.332,85.005,22.668,85.01,22Z"/></g></g></g></g></svg>
